packages/foundations/assets/icons/functional/images/navigation/magnifying_glass.svg

<svg xmlns="http://www.w3.org/2000/svg" width="32" height="32" fill="none"><path fill="#1A1C1F" fill-rule="evenodd" d="M12.453 3.022c-2.596.16-4.929 1.239-6.699 3.099-1.62 1.702-2.516 3.725-2.723 6.146-.182 2.116.427 4.452 1.627 6.248 1.622 2.428 4.082 3.968 7.022 4.396.891.129 2.397.081 3.286-.106 1.454-.306 2.773-.886 3.894-1.712l.472-.348 4.081 4.075c2.98 2.975 4.129 4.09 4.262 4.134.498.164 1.012-.066 1.238-.554.113-.246.122-.396.042-.693-.049-.184-.62-.777-4.133-4.295l-4.076-4.081.347-.471c.826-1.121 1.406-2.44 1.712-3.894.187-.889.235-2.395.106-3.286-.425-2.921-1.951-5.377-4.324-6.96a9.86 9.86 0 0 0-4.88-1.681 12 12 0 0 0-.827-.041zm2.171 2.149a7.97 7.97 0 0 1 4.125 2.302 7.95 7.95 0 0 1 1.828 8.069c-.591 1.774-1.906 3.388-3.558 4.367-3.03 1.796-6.971 1.327-9.519-1.134-1.221-1.178-1.983-2.541-2.337-4.178-.169-.782-.169-2.434 0-3.198a7.8 7.8 0 0 1 .649-1.879c1.208-2.471 3.533-4.124 6.295-4.473.469-.06 2.011.017 2.517.124"/></svg>

<svg width="32" height="32" viewBox="0 0 32 32" fill="none" xmlns="http://www.w3.org/2000/svg"><path d="M12.453 3.022 C 9.857 3.182,7.524 4.261,5.754 6.121 C 4.134 7.823,3.238 9.846,3.031 12.267 C 2.849 14.383,3.458 16.719,4.658 18.515 C 6.280 20.943,8.740 22.483,11.680 22.911 C 12.571 23.040,14.077 22.992,14.966 22.805 C 16.420 22.499,17.739 21.919,18.860 21.093 L 19.332 20.745 23.413 24.820 C 26.393 27.795,27.542 28.910,27.675 28.954 C 28.173 29.118,28.687 28.888,28.913 28.400 C 29.026 28.154,29.035 28.004,28.955 27.707 C 28.906 27.523,28.335 26.930,24.822 23.412 L 20.746 19.331 21.093 18.860 C 21.919 17.739,22.499 16.420,22.805 14.966 C 22.992 14.077,23.040 12.571,22.911 11.680 C 22.486 8.759,20.960 6.303,18.587 4.720 C 17.085 3.718,15.499 3.171,13.707 3.039 C 13.340 3.012,12.968 2.993,12.880 2.998 C 12.792 3.002,12.600 3.013,12.453 3.022 M14.624 5.171 C 16.208 5.508,17.605 6.288,18.749 7.473 C 20.822 9.622,21.522 12.709,20.577 15.542 C 19.986 17.316,18.671 18.930,17.019 19.909 C 13.989 21.705,10.048 21.236,7.500 18.775 C 6.279 17.597,5.517 16.234,5.163 14.597 C 4.994 13.815,4.994 12.163,5.163 11.399 C 5.322 10.680,5.506 10.146,5.812 9.520 C 7.020 7.049,9.345 5.396,12.107 5.047 C 12.576 4.987,14.118 5.064,14.624 5.171 " fill="#1A1C1F" stroke="none" fill-rule="evenodd"></path></svg>
